installer/core/SKSE/plugins/resources/icons/potion_magicka.svg

<?xml version="1.0" encoding="UTF-8" standalone="no"?>
<!DOCTYPE svg PUBLIC "-//W3C//DTD SVG 1.1//EN" "http://www.w3.org/Graphics/SVG/1.1/DTD/svg11.dtd">
<svg width="100%" height="100%" viewBox="0 0 362 512" version="1.1" xmlns="http://www.w3.org/2000/svg" xmlns:xlink="http://www.w3.org/1999/xlink" xml:space="preserve" xmlns:serif="http://www.serif.com/" style="fill-rule:evenodd;clip-rule:evenodd;stroke-linejoin:round;stroke-miterlimit:2;">
    <g transform="matrix(0.593176,0,0,0.593176,-28.1462,-14.8591)">
        <path d="M186.5,558.65L186.5,623.2C247.8,572.5 308.3,569.6 368,614.5C422.367,655.967 475.95,658.867 528.75,623.2L528.75,558.65C475.95,594.283 422.367,591.5 368,550.3C308.3,504.9 247.8,507.683 186.5,558.65M186.5,704.05L186.5,769C247.8,717.767 308.3,714.717 368,759.85C422.367,801.583 475.95,804.633 528.75,769L528.75,704.05C475.95,739.683 422.367,736.767 368,695.3C308.3,650.133 247.8,653.05 186.5,704.05M656.35,580.8L656.35,741.65C656.35,801.85 638.517,843.583 602.85,866.85C580.917,881.083 552.133,888.2 516.5,888.2L185.75,888.2C93.55,888.2 47.45,839.35 47.45,741.65L47.45,580.8C46.417,553.633 81.033,510.6 151.3,451.7C176.367,428.967 206.983,404.4 243.15,378L243.15,336L241.95,336C233.783,336 226.783,332.95 220.95,326.85C216.217,322.383 213.85,315.133 213.85,305.1C213.85,298.233 216.217,291.883 220.95,286.05C226.783,281.317 233.783,278.95 241.95,278.95L243.15,278.95L243.15,211.6L241.95,211.6C233.783,211.6 226.783,208.7 220.95,202.9C217.283,199.2 214.917,194.3 213.85,188.2C204.083,187.433 195.367,183.1 187.7,175.2C179.767,167.533 175.8,158.417 175.8,147.85C175.8,136.75 179.767,126.983 187.7,118.55C196.433,110.617 206.2,106.65 217,106.65L256.25,106.65L256.25,80.1C256.25,43.4 272.217,25.05 304.15,25.05L395.25,25.05C427.25,25.05 443.25,43.4 443.25,80.1L443.25,106.65L481.25,106.65C491.817,106.65 501.05,110.617 508.95,118.55C517.683,126.983 522.05,136.75 522.05,147.85C522.05,158.417 517.683,167.533 508.95,175.2C502.083,182.033 494.683,186.367 486.75,188.2C486.017,194.3 483.25,199.2 478.45,202.9C477.417,204.767 475.85,206.217 473.75,207.25C470.017,210.15 465.133,211.6 459.1,211.6L456.25,211.6L456.25,278.95L459.1,278.95C466.967,278.95 473.417,281.317 478.45,286.05C483.983,291.883 486.75,298.233 486.75,305.1C486.75,315.133 483.983,322.383 478.45,326.85C473.417,332.95 466.967,336 459.1,336L456.25,336L456.25,378C492.183,404.4 523.35,428.967 549.75,451.7C570.65,469.133 588.35,485.233 602.85,500C637.183,534.333 655.017,561.267 656.35,580.8" style="fill:white;"/>
    </g>
</svg>

<?xml version="1.0" encoding="UTF-8" standalone="no"?>
<svg
   height="512"
   width="512"
   version="1.1"
   id="svg266"
   sodipodi:docname="potion_magicka.svg"
   xmlns:inkscape="http://www.inkscape.org/namespaces/inkscape"
   xmlns:sodipodi="http://sodipodi.sourceforge.net/DTD/sodipodi-0.dtd"
   xmlns="http://www.w3.org/2000/svg"
   xmlns:svg="http://www.w3.org/2000/svg">
  <defs
     id="defs270" />
  <sodipodi:namedview
     id="namedview268"
     pagecolor="#505050"
     bordercolor="#ffffff"
     borderopacity="1"
     inkscape:showpageshadow="0"
     inkscape:pageopacity="0"
     inkscape:pagecheckerboard="1"
     inkscape:deskcolor="#505050"
     showgrid="false" />
  <g
     transform="matrix(0.59317616,0,0,0.59317616,47.267972,-14.859064)"
     id="g264">
    <path
       d="m 186.5,558.65 v 64.55 q 91.95,-76.05 181.5,-8.7 81.55,62.2 160.75,8.7 V 558.65 Q 449.55,612.1 368,550.3 278.45,482.2 186.5,558.65 m 0,145.4 V 769 q 91.95,-76.85 181.5,-9.15 81.55,62.6 160.75,9.15 V 704.05 Q 449.55,757.5 368,695.3 278.45,627.55 186.5,704.05 M 656.35,580.8 v 160.85 q 0,90.3 -53.5,125.2 -32.9,21.35 -86.35,21.35 H 185.75 q -138.3,0 -138.3,-146.55 V 580.8 Q 45.9,540.05 151.3,451.7 188.9,417.6 243.15,378 v -42 h -1.2 q -12.25,0 -21,-9.15 -7.1,-6.7 -7.1,-21.75 0,-10.3 7.1,-19.05 8.75,-7.1 21,-7.1 h 1.2 V 211.6 h -1.2 q -12.25,0 -21,-8.7 -5.5,-5.55 -7.1,-14.7 -14.65,-1.15 -26.15,-13 -11.9,-11.5 -11.9,-27.35 0,-16.65 11.9,-29.3 13.1,-11.9 29.3,-11.9 h 39.25 V 80.1 q 0,-55.05 47.9,-55.05 h 91.1 q 48,0 48,55.05 v 26.55 h 38 q 15.85,0 27.7,11.9 13.1,12.65 13.1,29.3 0,15.85 -13.1,27.35 -10.3,10.25 -22.2,13 -1.1,9.15 -8.3,14.7 -1.55,2.8 -4.7,4.35 -5.6,4.35 -14.65,4.35 h -2.85 v 67.35 h 2.85 q 11.8,0 19.35,7.1 8.3,8.75 8.3,19.05 0,15.05 -8.3,21.75 Q 470.9,336 459.1,336 h -2.85 v 42 q 53.9,39.6 93.5,73.7 31.35,26.15 53.1,48.3 51.5,51.5 53.5,80.8"
       fill="#ffffff"
       fill-rule="evenodd"
       stroke="none"
       id="path262" />
  </g>
</svg>
